X:5799
T:Sbrando ("Smarlon")
O:england
C:Tre Martelli: Brüzè Carvè 12
M:6/8
L:1/8
K:G
B2c|d2d ded|B2B dcB|AGA cBA|B2G B2c|\
d2d ded|B2B dcB|AGA cBA|G3:|
|:ABA|G2G AGA|B2G ABA|GAB cBA|B2G B2c|\
d2d ded|B2B dcB|AGA cBA|G3:|
K:C
|:GAB|c2c cde|f2f fed|g2g fed|e2c GAB|\
c2c cde|f2f fed|gag fed|c3:|


